table-multiple.svg

<svg  viewBox="0 0 24 24" fill="currentColor"><path  d="M7 2H21C22.11 2 23 2.9 23 4V16C23 17.11 22.11 18 21 18H7C5.9 18 5 17.11 5 16V4C5 2.9 5.9 2 7 2M7 6V10H13V6H7M15 6V10H21V6H15M7 12V16H13V12H7M15 12V16H21V12H15M3 20V6H1V20C1 21.11 1.89 22 3 22H19V20H3Z"/></svg>

<svg fill="currentColor" viewBox="0 0 24 24"><path d="M7 2h14a2 2 0 0 1 2 2v12c0 1.11-.89 2-2 2H7a2 2 0 0 1-2-2V4c0-1.1.9-2 2-2m0 4v4h6V6zm8 0v4h6V6zm-8 6v4h6v-4zm8 0v4h6v-4zM3 20V6H1v14c0 1.11.89 2 2 2h16v-2z"/></svg>
